content/about/community/join/drive.svg

<svg viewBox="0 0 139 120.4" xmlns="http://www.w3.org/2000/svg" xmlns:xlink="http://www.w3.org/1999/xlink"><radialGradient id="a" cx="-254.81979" cy="705.83588" gradientTransform="matrix(2.827 1.6322 -1.6322 2.827 2092.1199 -1494.5786)" gradientUnits="userSpaceOnUse" r="82.978401"><stop offset="0" stop-color="#4387fd"/><stop offset=".65" stop-color="#3078f0"/><stop offset=".9099" stop-color="#2b72ea"/><stop offset="1" stop-color="#286ee6"/></radialGradient><radialGradient id="b" cx="-254.8174" cy="705.83691" gradientTransform="matrix(2.827 1.6322 -1.6322 2.827 2092.1199 -1494.5786)" gradientUnits="userSpaceOnUse" r="82.973"><stop offset="0" stop-color="#ffd24d"/><stop offset="1" stop-color="#f6c338"/></radialGradient><path d="m24.2 120.4-24.2-41.9 45.3-78.5 24.2 41.9z" fill="#0da960"/><path d="m24.2 120.4 24.2-41.9h90.6l-24.2 41.9z" fill="url(#a)"/><path d="m139 78.5h-48.4l-45.3-78.5h48.4z" fill="url(#b)"/><path d="m69.5 78.5h-21.1l10.5-18.3-34.7 60.2z" fill="#2d6fdd"/><path d="m90.6 78.5h48.4l-58.9-18.3z" fill="#e5b93c"/><path d="m58.9 60.2 10.6-18.3-24.2-41.9z" fill="#0c9b57"/></svg>

<svg viewBox="0 0 139 120.4" xmlns="http://www.w3.org/2000/svg"><radialGradient id="a" cx="-254.82" cy="705.836" gradientTransform="scale(3.2644) rotate(30 1174.792 966.99)" gradientUnits="userSpaceOnUse" r="82.978"><stop offset="0" stop-color="#4387fd"/><stop offset=".65" stop-color="#3078f0"/><stop offset=".91" stop-color="#2b72ea"/><stop offset="1" stop-color="#286ee6"/></radialGradient><radialGradient id="b" cx="-254.817" cy="705.837" gradientTransform="scale(3.2644) rotate(30 1174.792 966.99)" gradientUnits="userSpaceOnUse" r="82.973"><stop offset="0" stop-color="#ffd24d"/><stop offset="1" stop-color="#f6c338"/></radialGradient><path d="M24.2 120.4L0 78.5 45.3 0l24.2 41.9z" fill="#0da960"/><path d="M24.2 120.4l24.2-41.9H139l-24.2 41.9z" fill="url(#a)"/><path d="M139 78.5H90.6L45.3 0h48.4z" fill="url(#b)"/><path d="M69.5 78.5H48.4l10.5-18.3-34.7 60.2z" fill="#2d6fdd"/><path d="M90.6 78.5H139L80.1 60.2z" fill="#e5b93c"/><path d="M58.9 60.2l10.6-18.3L45.3 0z" fill="#0c9b57"/></svg>
